assets/images/logo.svg

<?xml version="1.0" encoding="UTF-8" standalone="no"?><svg width="264px" height="280px" viewBox="0 0 264 280" version="1.1" xmlns="http://www.w3.org/2000/svg" xmlns:xlink="http://www.w3.org/1999/xlink"><desc>Created with getavataaars.com</desc><defs><circle id="path-1" cx="120" cy="120" r="120"></circle><path d="M12,160 C12,226.27417 65.72583,280 132,280 C198.27417,280 252,226.27417 252,160 L264,160 L264,-1.42108547e-14 L-3.19744231e-14,-1.42108547e-14 L-3.19744231e-14,160 L12,160 Z" id="path-3"></path><path d="M124,144.610951 L124,163 L128,163 L128,163 C167.764502,163 200,195.235498 200,235 L200,244 L0,244 L0,235 C-4.86974701e-15,195.235498 32.235498,163 72,163 L72,163 L76,163 L76,144.610951 C58.7626345,136.422372 46.3722246,119.687011 44.3051388,99.8812385 C38.4803105,99.0577866 34,94.0521096 34,88 L34,74 C34,68.0540074 38.3245733,63.1180731 44,62.1659169 L44,56 L44,56 C44,25.072054 69.072054,5.68137151e-15 100,0 L100,0 L100,0 C130.927946,-5.68137151e-15 156,25.072054 156,56 L156,62.1659169 C161.675427,63.1180731 166,68.0540074 166,74 L166,88 C166,94.0521096 161.51969,99.0577866 155.694861,99.8812385 C153.627775,119.687011 141.237365,136.422372 124,144.610951 Z" id="path-5"></path></defs><g id="Avataaar" stroke="none" stroke-width="1" fill="none" fill-rule="evenodd"><g transform="translate(-825.000000, -1100.000000)" id="Avataaar/Circle"><g transform="translate(825.000000, 1100.000000)"><g id="Circle" stroke-width="1" fill-rule="evenodd" transform="translate(12.000000, 40.000000)"><mask id="mask-2" fill="white"><use xlink:href="#path-1"></use></mask><use id="Circle-Background" fill="#65c9ff" xlink:href="#path-1"></use><g id="Color/Palette/Blue-01" mask="url(#mask-2)" fill="#65C9FF"><rect id="🖍Color" x="0" y="0" width="240" height="240"></rect></g></g><mask id="mask-4" fill="white"><use xlink:href="#path-3"></use></mask><g id="Mask"></g><g id="Avataaar" stroke-width="1" fill-rule="evenodd" mask="url(#mask-4)"><g id="Body" transform="translate(32.000000, 36.000000)"><mask id="mask-6" fill="white"><use xlink:href="#path-5"></use></mask><use fill="#D0C6AC" xlink:href="#path-5"></use><g id="Skin/👶🏽-03-Brown" mask="url(#mask-6)" fill="#EDB98A"><g transform="translate(-32.000000, 0.000000)" id="Color"><rect x="0" y="0" width="264" height="244"></rect></g></g><path d="M156,79 L156,102 C156,132.927946 130.927946,158 100,158 C69.072054,158 44,132.927946 44,102 L44,79 L44,94 C44,124.927946 69.072054,150 100,150 C130.927946,150 156,124.927946 156,94 L156,79 Z" id="Neck-Shadow" fill-opacity="0.100000001" fill="#000000" mask="url(#mask-6)"></path></g><g id="Clothing/Hoodie" transform="translate(0.000000, 170.000000)"><defs><path d="M108,13.0708856 C90.0813006,15.075938 76.2798424,20.5518341 76.004203,34.6449676 C50.1464329,45.5680933 32,71.1646257 32,100.999485 L32,100.999485 L32,110 L232,110 L232,100.999485 C232,71.1646257 213.853567,45.5680933 187.995797,34.6449832 C187.720158,20.5518341 173.918699,15.075938 156,13.0708856 L156,32 L156,32 C156,45.254834 145.254834,56 132,56 L132,56 C118.745166,56 108,45.254834 108,32 L108,13.0708856 Z" id="react-path-134"></path></defs><mask id="react-mask-135" fill="white"><use xlink:href="#react-path-134"></use></mask><use id="Hoodie" fill="#B7C1DB" fill-rule="evenodd" xlink:href="#react-path-134"></use><g id="Color/Palette/Gray-01" mask="url(#react-mask-135)" fill-rule="evenodd" fill="#929598"><rect id="🖍Color" x="0" y="0" width="264" height="110"></rect></g><path d="M102,61.7390531 L102,110 L95,110 L95,58.1502625 C97.2037542,59.4600576 99.5467694,60.6607878 102,61.7390531 Z M169,58.1502625 L169,98.5 C169,100.432997 167.432997,102 165.5,102 C163.567003,102 162,100.432997 162,98.5 L162,61.7390531 C164.453231,60.6607878 166.796246,59.4600576 169,58.1502625 Z" id="Straps" fill="#F4F4F4" fill-rule="evenodd" mask="url(#react-mask-135)"></path><path d="M90.9601329,12.7243537 C75.9093095,15.5711782 65.5,21.2428847 65.5,32.3076923 C65.5,52.0200095 98.5376807,68 132,68 C165.462319,68 198.5,52.0200095 198.5,32.3076923 C198.5,21.2428847 188.09069,15.5711782 173.039867,12.7243537 C182.124921,16.0744598 188,21.7060546 188,31.0769231 C188,51.4689754 160.178795,68 132,68 C103.821205,68 76,51.4689754 76,31.0769231 C76,21.7060546 81.8750795,16.0744598 90.9601329,12.7243537 Z" id="Shadow" fill-opacity="0.16" fill="#000000" fill-rule="evenodd" mask="url(#react-mask-135)"></path></g><g id="Face" transform="translate(76.000000, 82.000000)" fill="#000000"><g id="Mouth/Smile" transform="translate(2.000000, 52.000000)"><defs><path d="M35.117844,15.1280772 C36.1757121,24.6198025 44.2259873,32 54,32 C63.8042055,32 71.8740075,24.574136 72.8917593,15.0400546 C72.9736685,14.272746 72.1167429,13 71.042767,13 C56.1487536,13 44.7379213,13 37.0868244,13 C36.0066168,13 35.0120058,14.1784435 35.117844,15.1280772 Z" id="react-path-148"></path></defs><mask id="react-mask-149" fill="white"><use xlink:href="#react-path-148"></use></mask><use id="Mouth" fill-opacity="0.699999988" fill="#000000" fill-rule="evenodd" xlink:href="#react-path-148"></use><rect id="Teeth" fill="#FFFFFF" fill-rule="evenodd" mask="url(#react-mask-149)" x="39" y="2" width="31" height="16" rx="5"></rect><g id="Tongue" stroke-width="1" fill-rule="evenodd" mask="url(#react-mask-149)" fill="#FF4F6D"><g transform="translate(38.000000, 24.000000)"><circle cx="11" cy="11" r="11"></circle><circle cx="21" cy="11" r="11"></circle></g></g></g><g id="Nose/Default" transform="translate(28.000000, 40.000000)" fill-opacity="0.16"><path d="M16,8 C16,12.418278 21.372583,16 28,16 L28,16 C34.627417,16 40,12.418278 40,8" id="Nose"></path></g><g id="Eyes/Default-😀" transform="translate(0.000000, 8.000000)" fill-opacity="0.599999964"><circle id="Eye" cx="30" cy="22" r="6"></circle><circle id="Eye" cx="82" cy="22" r="6"></circle></g><g id="Eyebrow/Outline/Default" fill-opacity="0.599999964"><g id="I-Browse" transform="translate(12.000000, 6.000000)"><path d="M3.63024536,11.1585767 C7.54515501,5.64986673 18.2779197,2.56083721 27.5230268,4.83118046 C28.5957248,5.0946055 29.6788665,4.43856013 29.9422916,3.36586212 C30.2057166,2.2931641 29.5496712,1.21002236 28.4769732,0.94659732 C17.7403633,-1.69001789 5.31209962,1.88699832 0.369754639,8.84142326 C-0.270109626,9.74178291 -0.0589363917,10.9903811 0.84142326,11.6302454 C1.74178291,12.2701096 2.9903811,12.0589364 3.63024536,11.1585767 Z" id="Eyebrow" fill-rule="nonzero"></path><path d="M61.6302454,11.1585767 C65.545155,5.64986673 76.2779197,2.56083721 85.5230268,4.83118046 C86.5957248,5.0946055 87.6788665,4.43856013 87.9422916,3.36586212 C88.2057166,2.2931641 87.5496712,1.21002236 86.4769732,0.94659732 C75.7403633,-1.69001789 63.3120996,1.88699832 58.3697546,8.84142326 C57.7298904,9.74178291 57.9410636,10.9903811 58.8414233,11.6302454 C59.7417829,12.2701096 60.9903811,12.0589364 61.6302454,11.1585767 Z" id="Eyebrow" fill-rule="nonzero" transform="translate(73.000154, 6.039198) scale(-1, 1) translate(-73.000154, -6.039198) "></path></g></g></g><g id="Top" stroke-width="1" fill-rule="evenodd"><defs><rect id="react-path-101" x="0" y="0" width="264" height="280"></rect><path d="M180.14998,39.9204083 C177.390206,37.1003988 174.185913,34.7068297 171.069252,32.3065503 C170.381566,31.777442 169.682843,31.2610833 169.010544,30.7118441 C168.857687,30.5870323 167.291999,29.4657388 167.104691,29.0530544 C166.653816,28.0602634 166.915042,28.8332916 166.977255,27.6485857 C167.055857,26.150508 170.11064,21.9193194 167.831176,20.9490079 C166.828413,20.522232 165.039628,21.6579526 164.077671,22.0330592 C162.196235,22.7671676 160.291721,23.3932399 158.346734,23.9330847 C159.278588,22.0763407 161.055333,18.3594977 157.71591,19.3543018 C155.114345,20.1293431 152.690052,22.1219709 150.075777,23.0594018 C150.940735,21.6415124 154.399901,17.2479341 151.274209,17.0023366 C150.301549,16.925839 147.471201,18.7503735 146.423952,19.1395717 C143.287223,20.3054888 140.083264,21.0590571 136.789999,21.6525844 C125.59203,23.6707114 112.497238,23.0953019 102.1368,28.1934632 C94.1494796,32.1236942 86.262502,38.2220278 81.648386,45.987539 C77.2011742,53.472559 75.537818,61.6641751 74.6069673,70.2412987 C73.9239644,76.535909 73.8684412,83.0425652 74.1878671,89.3599905 C74.2922241,91.4297869 74.5250203,100.970847 77.5319724,98.0813859 C79.0300967,96.641688 79.019059,90.8282073 79.3963495,88.8604076 C80.1472513,84.9452748 80.870057,81.0126951 82.122006,77.2227096 C84.3282191,70.5439339 86.9307879,63.4296587 92.4269209,58.8297383 C95.9539853,55.8782066 98.4307906,51.8889248 101.806002,48.9112229 C103.322188,47.5738572 102.165231,47.7130963 104.602902,47.888571 C106.240504,48.006337 107.885464,48.0512961 109.52641,48.0942421 C113.322394,48.1928837 117.124399,48.16772 120.921387,48.1811407 C128.56821,48.208653 136.179243,48.316689 143.818708,47.9164188 C147.213653,47.7385955 150.617965,47.6423024 154.00388,47.3282597 C155.895349,47.152785 159.251496,45.9405668 160.808488,46.8669256 C162.233362,47.7144383 163.71309,50.4817719 164.736257,51.615144 C167.153525,54.2935659 170.035717,56.3392052 172.862385,58.5354911 C178.756547,63.114945 181.732392,68.8666908 183.522515,76.023241 C185.305949,83.1532854 184.805905,89.76815 187.013456,96.78479 C187.401784,98.0184813 188.428965,100.14498 189.695296,98.2389151 C189.930434,97.8849461 189.869559,95.9390277 189.869559,94.819339 C189.869559,90.2995934 191.014141,86.9083772 190.999758,82.3591197 C190.943566,68.5271489 190.49637,50.4908308 180.14998,39.9204083 Z" id="react-path-100"></path><filter x="-0.8%" y="-2.0%" width="101.5%" height="108.0%" filterUnits="objectBoundingBox" id="react-filter-97"><feOffset dx="0" dy="2" in="SourceAlpha" result="shadowOffsetOuter1"></feOffset><feColorMatrix values="0 0 0 0 0   0 0 0 0 0   0 0 0 0 0  0 0 0 0.16 0" type="matrix" in="shadowOffsetOuter1" result="shadowMatrixOuter1"></feColorMatrix><feMerge><feMergeNode in="shadowMatrixOuter1"></feMergeNode><feMergeNode in="SourceGraphic"></feMergeNode></feMerge></filter></defs><mask id="react-mask-99" fill="white"><use xlink:href="#react-path-101"></use></mask><g id="Mask"></g><g id="Top/Short-Hair/Short-Flat" mask="url(#react-mask-99)"><g transform="translate(-1.000000, 0.000000)"><g id="Facial-Hair/Beard-Light" transform="translate(49.000000, 72.000000)"><defs><path d="M101.428403,98.1685688 C98.9148372,100.462621 96.23722,101.494309 92.8529444,100.772863 C92.2705777,100.648833 89.8963391,96.2345713 83.9998344,96.2345713 C78.1033297,96.2345713 75.7294253,100.648833 75.1467245,100.772863 C71.7624488,101.494309 69.0848316,100.462621 66.5712661,98.1685688 C61.8461772,93.855604 57.9166219,87.9081858 60.2778299,81.4191814 C61.5083844,78.0369425 63.5097479,74.3237342 67.1506257,73.2459109 C71.0384163,72.0955419 76.4968931,73.2439051 80.4147542,72.4582708 C81.6840664,72.2035248 83.0706538,71.7508657 83.9998344,71 C84.929015,71.7508657 86.3159365,72.2035248 87.5845805,72.4582708 C91.5027758,73.2439051 96.9612525,72.0955419 100.849043,73.2459109 C104.489921,74.3237342 106.491284,78.0369425 107.722173,81.4191814 C110.083381,87.9081858 106.153826,93.855604 101.428403,98.1685688 M140.081033,26 C136.670693,34.4002532 137.987774,44.8580348 137.356666,53.6758724 C136.844038,60.8431942 135.33712,71.5857526 128.972858,76.214531 C125.718361,78.5816138 119.79436,82.5598986 115.54187,81.4501943 C112.614539,80.6863848 112.302182,72.290096 108.455284,69.1469801 C104.09172,65.5823153 98.6429854,64.0160432 93.1491481,64.2578722 C90.7785381,64.3622683 85.9841367,64.3374908 83.9999331,66.1604584 C82.0157295,64.3374908 77.2216647,64.3622683 74.8510547,64.2578722 C69.3568808,64.0160432 63.9081467,65.5823153 59.5445817,69.1469801 C55.6976839,72.290096 55.3856641,80.6863848 52.4583326,81.4501943 C48.2058427,82.5598986 42.2818421,78.5816138 39.0270077,76.214531 C32.6624096,71.5857526 31.1561652,60.8431942 30.642864,53.6758724 C30.0120926,44.8580348 31.3291729,34.4002532 27.9188335,26 C26.2597768,26 27.3540339,42.1288693 27.3540339,42.1288693 L27.3540339,62.4851205 C27.3856735,77.7732046 36.935095,100.655445 58.1080116,109.393004 C63.2861266,111.52982 75.0153111,115 83.9999331,115 C92.9845551,115 104.71374,111.860188 109.891855,109.723371 C131.064771,100.985813 140.614193,77.7732046 140.646169,62.4851205 L140.646169,42.1288693 C140.646169,42.1288693 141.740089,26 140.081033,26" id="react-path-123"></path></defs><mask id="react-mask-122" fill="white"><use xlink:href="#react-path-123"></use></mask><use id="Lite-Beard" fill="#331B0C" fill-rule="evenodd" xlink:href="#react-path-123"></use><g id="Color/Hair/Brown" mask="url(#react-mask-122)" fill="#D6B370"><g transform="translate(-32.000000, 0.000000)" id="Color"><rect x="0" y="0" width="264" height="244"></rect></g></g></g><mask id="react-mask-98" fill="white"><use xlink:href="#react-path-100"></use></mask><use id="Short-Hair" stroke="none" fill="#1F3140" fill-rule="evenodd" xlink:href="#react-path-100"></use><g id="Skin/👶🏽-03-Brown" mask="url(#react-mask-98)" fill="#D6B370"><g transform="translate(0.000000, 0.000000) " id="Color"><rect x="0" y="0" width="264" height="280"></rect></g></g></g></g></g></g></g></g></g></svg>

<?xml version="1.0" encoding="UTF-8"?>
<svg version="1.1" viewBox="0 0 264 280" xmlns="http://www.w3.org/2000/svg" xmlns:xlink="http://www.w3.org/1999/xlink">
<desc>Created with getavataaars.com</desc>
<defs>
<circle id="h" cx="120" cy="120" r="120"/>
<path id="n" d="m12 160c0 66.274 53.726 120 120 120s120-53.726 120-120h12v-160h-264v160h12z"/>
<path id="g" d="m124 144.61v18.389h4c39.765 0 72 32.235 72 72v9h-200v-9c-4.8697e-15 -39.765 32.235-72 72-72h4v-18.389c-17.237-8.1886-29.628-24.924-31.695-44.73-5.8248-0.82345-10.305-5.8291-10.305-11.881v-14c0-5.946 4.3246-10.882 10-11.834v-6.1659c0-30.928 25.072-56 56-56s56 25.072 56 56v6.1659c5.6754 0.95216 10 5.8881 10 11.834v14c0 6.0521-4.4803 11.058-10.305 11.881-2.0671 19.806-14.457 36.541-31.695 44.73z"/>
</defs>
<g id="v" fill="none" fill-rule="evenodd">
<g transform="translate(-825 -1100)">
<g transform="translate(825 1100)" fill-rule="evenodd">
<g transform="translate(12 40)">
<mask id="p" fill="white">
<use xlink:href="#h"/>
</mask>
<use fill="#65c9ff" xlink:href="#h"/>
<g fill="#65C9FF" mask="url(#p)">
<rect id="t" width="240" height="240"/>
</g>
</g>
<mask id="o" fill="white">
<use xlink:href="#n"/>
</mask>
<g mask="url(#o)">
<g transform="translate(32 36)">
<mask id="i" fill="white">
<use xlink:href="#g"/>
</mask>
<use fill="#D0C6AC" xlink:href="#g"/>
<g id="s" fill="#EDB98A" mask="url(#i)">
<g id="Color" transform="translate(-32)">
<rect width="264" height="244"/>
</g>
</g>
<path d="m156 79v23c0 30.928-25.072 56-56 56s-56-25.072-56-56v-23 15c0 30.928 25.072 56 56 56s56-25.072 56-56v-15z" fill="#000" fill-opacity=".1" mask="url(#i)"/>
</g>
<g transform="translate(0 170)">
<defs>
<path id="c" d="m108 13.071c-17.919 2.0051-31.72 7.4809-31.996 21.574-25.858 10.923-44.004 36.52-44.004 66.355v9.0005h200v-9.0005c0-29.835-18.146-55.431-44.004-66.355-0.27564-14.093-14.077-19.569-31.996-21.574v18.929c0 13.255-10.745 24-24 24s-24-10.745-24-24v-18.929z"/>
</defs>
<mask id="a" fill="white">
<use xlink:href="#c"/>
</mask>
<use fill="#B7C1DB" fill-rule="evenodd" xlink:href="#c"/>
<g fill="#929598" fill-rule="evenodd" mask="url(#a)">
<rect width="264" height="110"/>
</g>
<path d="m102 61.739v48.261h-7v-51.85c2.2038 1.3098 4.5468 2.5105 7 3.5888zm67-3.5888v40.35c0 1.933-1.567 3.5-3.5 3.5s-3.5-1.567-3.5-3.5v-36.761c2.4532-1.0783 4.7962-2.279 7-3.5888z" fill="#F4F4F4" fill-rule="evenodd" mask="url(#a)"/>
<path d="m90.96 12.724c-15.051 2.8468-25.46 8.5185-25.46 19.583 0 19.712 33.038 35.692 66.5 35.692 33.462 0 66.5-15.98 66.5-35.692 0-11.065-10.409-16.737-25.46-19.583 9.0851 3.3501 14.96 8.9817 14.96 18.353 0 20.392-27.821 36.923-56 36.923s-56-16.531-56-36.923c0-9.3709 5.8751-15.002 14.96-18.353z" fill="#000" fill-opacity=".16" fill-rule="evenodd" mask="url(#a)"/>
</g>
<g transform="translate(76 82)" fill="#000">
<g transform="translate(2 52)">
<defs>
<path id="b" d="m35.118 15.128c1.0579 9.4917 9.1081 16.872 18.882 16.872 9.8042 0 17.874-7.4259 18.892-16.96 0.081909-0.76731-0.77502-2.0401-1.849-2.0401h-33.956c-1.0802 0-2.0748 1.1784-1.969 2.1281z"/>
</defs>
<mask id="f" fill="white">
<use xlink:href="#b"/>
</mask>
<use fill="#000000" fill-opacity=".7" fill-rule="evenodd" xlink:href="#b"/>
<rect x="39" y="2" width="31" height="16" rx="5" fill="#fff" fill-rule="evenodd" mask="url(#f)"/>
<g fill="#FF4F6D" fill-rule="evenodd" mask="url(#f)">
<g transform="translate(38 24)">
<circle cx="11" cy="11" r="11"/>
<circle cx="21" cy="11" r="11"/>
</g>
</g>
</g>
<g transform="translate(28 40)" fill-opacity=".16">
<path d="m16 8c0 4.4183 5.3726 8 12 8s12-3.5817 12-8"/>
</g>
<g transform="translate(0 8)" fill-opacity=".6">
<circle id="u" cx="30" cy="22" r="6"/>
<circle cx="82" cy="22" r="6"/>
</g>
<g fill-opacity=".6">
<g transform="translate(12 6)" fill-rule="nonzero">
<path id="q" d="m3.6302 11.159c3.9149-5.5087 14.648-8.5977 23.893-6.3274 1.0727 0.26343 2.1558-0.39262 2.4193-1.4653 0.26342-1.0727-0.39262-2.1558-1.4653-2.4193-10.737-2.6366-23.165 0.9404-28.107 7.8948-0.63986 0.90036-0.42869 2.149 0.47167 2.7888 0.90036 0.63986 2.149 0.42869 2.7888-0.47167z"/>
<path transform="translate(73 6.0392) scale(-1 1) translate(-73 -6.0392)" d="m61.63 11.159c3.9149-5.5087 14.648-8.5977 23.893-6.3274 1.0727 0.26343 2.1558-0.39262 2.4193-1.4653 0.26342-1.0727-0.39262-2.1558-1.4653-2.4193-10.737-2.6366-23.165 0.9404-28.107 7.8948-0.63986 0.90036-0.42869 2.149 0.47167 2.7888 0.90036 0.63986 2.149 0.42869 2.7888-0.47167z"/>
</g>
</g>
</g>
<g fill-rule="evenodd">
<defs>
<rect id="j" width="264" height="280"/>
<path id="e" d="m180.15 39.92c-2.7598-2.82-5.9641-5.2136-9.0807-7.6139-0.68769-0.52911-1.3864-1.0455-2.0587-1.5947-0.15286-0.12481-1.7185-1.2461-1.9059-1.6588-0.45088-0.99279-0.18965-0.21976-0.12744-1.4045 0.078602-1.4981 3.1334-5.7293 0.85392-6.6996-1.0028-0.42678-2.7915 0.70894-3.7535 1.0841-1.8814 0.73411-3.786 1.3602-5.7309 1.9 0.93185-1.8567 2.7086-5.5736-0.63082-4.5788-2.6016 0.77504-5.0259 2.7677-7.6401 3.7051 0.86496-1.4179 4.3241-5.8115 1.1984-6.0571-0.97266-0.076498-3.803 1.748-4.8503 2.1372-3.1367 1.1659-6.3407 1.9195-9.634 2.513-11.198 2.0181-24.293 1.4427-34.653 6.5409-7.9873 3.9302-15.874 10.029-20.488 17.794-4.4472 7.485-6.1106 15.677-7.0414 24.254-0.683 6.2946-0.73853 12.801-0.4191 19.119 0.10436 2.0698 0.33715 11.611 3.3441 8.7214 1.4981-1.4397 1.4871-7.2532 1.8644-9.221 0.7509-3.9151 1.4737-7.8477 2.7257-11.638 2.2062-6.6788 4.8088-13.793 10.305-18.393 3.5271-2.9515 6.0039-6.9408 9.3791-9.9185 1.5162-1.3374 0.35923-1.1981 2.7969-1.0227 1.6376 0.11777 3.2826 0.16273 4.9235 0.20567 3.796 0.098642 7.598 0.073478 11.395 0.086899 7.6468 0.027512 15.258 0.13555 22.897-0.26472 3.3949-0.17782 6.7993-0.27412 10.185-0.58816 1.8915-0.17547 5.2476-1.3877 6.8046-0.46133 1.4249 0.84751 2.9046 3.6148 3.9278 4.7482 2.4173 2.6784 5.2995 4.7241 8.1261 6.9203 5.8942 4.5795 8.87 10.331 10.66 17.488 1.7834 7.13 1.2834 13.745 3.4909 20.762 0.38833 1.2337 1.4155 3.3602 2.6818 1.4541 0.23514-0.35397 0.17426-2.2999 0.17426-3.4196 0-4.5197 1.1446-7.911 1.1302-12.46-0.056192-13.832-0.50339-31.868-10.85-42.439z"/>
</defs>
<mask id="k" fill="white">
<use xlink:href="#j"/>
</mask>
<g mask="url(#k)">
<g transform="translate(-1)">
<g transform="translate(49 72)">
<defs>
<path id="d" d="m101.43 98.169c-2.5136 2.2941-5.1912 3.3257-8.5755 2.6043-0.58237-0.12403-2.9566-4.5383-8.8531-4.5383s-8.2704 4.4143-8.8531 4.5383c-3.3843 0.72145-6.0619-0.31024-8.5755-2.6043-4.7251-4.313-8.6546-10.26-6.2934-16.749 1.2306-3.3822 3.2319-7.0954 6.8728-8.1733 3.8878-1.1504 9.3463-0.0020058 13.264-0.78764 1.2693-0.25475 2.6559-0.70741 3.5851-1.4583 0.92918 0.75087 2.3161 1.2035 3.5847 1.4583 3.9182 0.78563 9.3767-0.36273 13.264 0.78764 3.6409 1.0778 5.6422 4.791 6.8731 8.1733 2.3612 6.489-1.5683 12.436-6.2938 16.749m38.653-72.169c-3.4103 8.4003-2.0933 18.858-2.7244 27.676-0.51263 7.1673-2.0195 17.91-8.3838 22.539-3.2545 2.3671-9.1785 6.3454-13.431 5.2357-2.9273-0.76381-3.2397-9.1601-7.0866-12.303-4.3636-3.5647-9.8123-5.1309-15.306-4.8891-2.3706 0.1044-7.165 0.079619-9.1492 1.9026-1.9842-1.823-6.7783-1.7982-9.1489-1.9026-5.4942-0.24183-10.943 1.3244-15.306 4.8891-3.8469 3.1431-4.1589 11.539-7.0862 12.303-4.2525 1.1097-10.176-2.8686-13.431-5.2357-6.3646-4.6288-7.8708-15.371-8.3841-22.539-0.63077-8.8178 0.68631-19.276-2.724-27.676-1.6591 0-0.5648 16.129-0.5648 16.129v20.356c0.03164 15.288 9.5811 38.17 30.754 46.908 5.1781 2.1368 16.907 5.607 25.892 5.607s20.714-3.1398 25.892-5.2766c21.173-8.7376 30.722-31.95 30.754-47.238v-20.356s1.0939-16.129-0.56514-16.129"/>
</defs>
<mask id="m" fill="white">
<use xlink:href="#d"/>
</mask>
<use fill="#331B0C" fill-rule="evenodd" xlink:href="#d"/>
<g fill="#D6B370" mask="url(#m)">
<g id="r" transform="translate(-32)">
<rect width="264" height="244"/>
</g>
</g>
</g>
<mask id="l" fill="white">
<use xlink:href="#e"/>
</mask>
<use fill="#1F3140" fill-rule="evenodd" xlink:href="#e"/>
<g fill="#D6B370" mask="url(#l)">
<g transform="translate(0)">
<rect width="264" height="280"/>
</g>
</g>
</g>
</g>
</g>
</g>
</g>
</g>
</g>
</svg>
